<?xml version="1.0" encoding="UTF-8"?>
<map version="1.10" tiledversion="1.12.2" orientation="orthogonal" renderorder="right-down" width="20" height="18" tilewidth="8" tileheight="8" infinite="0" nextlayerid="4" nextobjectid="19">
 <tileset firstgid="1" name="objects" tilewidth="8" tileheight="8" tilecount="9" columns="9">
  <image source="hud-tileset.png" width="72" height="8"/>
 </tileset>
 <imagelayer id="2" name="background">
  <image source="hud_gg.png" width="160" height="144"/>
 </imagelayer>
 <objectgroup id="3" name="objects">
  <object id="15" name="life" gid="1" x="80" y="136" width="8" height="8"/>
  <object id="16" name="ammo" gid="2" x="80" y="144" width="8" height="8"/>
  <object id="17" name="keys" gid="3" x="120" y="136" width="8" height="8"/>
  <object id="18" name="items" gid="5" x="120" y="144" width="8" height="8"/>
 </objectgroup>
</map>
